X:1
T:Chelmsford, CM
T:Chelmsford, CM
T:Aaron Chapin, 1823
T:Public Domain Courtesy of the Cyber Hymnal™
C:Aaron Chapin, 1823
Z:Public Domain
Z:Courtesy of the Cyber Hymnal™
%%score ( 1 2 ) ( 3 4 )
L:1/8
Q:1/4=95
M:3/4
K:G
V:1 treble 
V:2 treble 
V:3 bass 
V:4 bass 
V:1
 D2 | [DG][DA] [DB]2 [DA]2 | [DG][^CE] D2 D2 | [DG][DA] [DB]2 [G^c]2 | [Fd]4 [Fd]2 | %5
 [Gc][DA] [DB]2 [DA]2 | [DG][^CE] D2 D2 | [DG][EA] [DB]2 [FA]2 | G4 |] %9
V:2
 D2 | x6 | x2 D2 D2 | x6 | x6 | x6 | x2 D2 D2 | x6 | G4 |] %9
V:3
 D,2 | [B,,D,][D,F,] G,2 [D,F,]2 | [G,,B,] (A,/G,/) [D,F,]2 [D,F,]2 | [B,,G,][D,F,] G,2 [E,A,]2 | %4
 [D,A,]4 [D,A,]2 | [E,G,][F,A,] G,2 [D,F,]2 | [G,,B,] (A,/G,/) [D,F,]2 [D,F,]2 | %7
 [B,,G,][C,G,] [D,G,]2 [D,C]2 | [G,,G,B,]4 |] %9
V:4
 D,2 | x2 G,2 x2 | x A,, x4 | x2 G,2 x2 | x6 | x2 G,2 x2 | x A,, x4 | x6 | x4 |] %9

